icons/prisoner.svg

<svg width="48" height="48" viewBox="0 0 48 48" fill="none" xmlns="http://www.w3.org/2000/svg">
<path fill-rule="evenodd" clip-rule="evenodd" d="M19.3012 6.56262C18.0055 6.80041 16.9179 7 16 7C15.4477 7 15 7.44772 15 8V18C15 22.9706 19.0294 27 24 27C28.9706 27 33 22.9706 33 18V8C33 7.44772 32.5523 7 32 7C31.1767 7 30.1624 6.81378 28.9151 6.58477L28.541 6.51624C27.1709 6.26622 25.6007 6 24 6C22.4527 6 20.9151 6.26718 19.5536 6.51634L19.3012 6.56262ZM19.6033 8.5407C18.7308 8.7014 17.8403 8.86543 17 8.94706V10.4523C17.6919 10.3834 18.4614 10.2578 19.316 10.1184L19.5731 10.0765C20.9353 9.85487 22.4639 9.61905 24 9.61905C25.5897 9.61905 27.1512 9.85411 28.5216 10.0764L28.8984 10.1378C29.6839 10.266 30.3821 10.38 31 10.4465V8.94208C30.2322 8.86174 29.4055 8.70922 28.5853 8.55789L28.5832 8.5575C28.4492 8.53278 28.3154 8.50809 28.182 8.48376C26.8121 8.23378 25.4011 8 24 8C22.6567 8 21.2843 8.23282 19.9136 8.48366L19.6033 8.5407ZM24 25C27.866 25 31 21.866 31 18V15.8369C30.2413 15.7658 29.4224 15.6315 28.6039 15.4973C28.4697 15.4753 28.3354 15.4533 28.2014 15.4315C26.8318 15.2094 25.4122 15 24 15C22.6454 15 21.2641 15.2086 19.8942 15.4315L19.586 15.4818C18.7145 15.6245 17.8313 15.769 17 15.8414V18C17 21.866 20.134 25 24 25ZM28.8984 13.5187C29.6839 13.6469 30.3821 13.7609 31 13.8274V12.4559C30.2413 12.3848 29.4224 12.2505 28.6039 12.1163L28.6029 12.1162C28.4692 12.0943 28.3348 12.0722 28.2014 12.0506C26.8318 11.8284 25.4122 11.619 24 11.619C22.6454 11.619 21.2641 11.8277 19.8942 12.0505L19.586 12.1009C18.7145 12.2435 17.8313 12.3881 17 12.4604V13.8333C17.6919 13.7643 18.4614 13.6388 19.316 13.4993L19.5731 13.4574C20.9353 13.2358 22.4639 13 24 13C25.5897 13 27.1512 13.2351 28.5216 13.4573L28.8984 13.5187Z" fill="black"/>
<path fill-rule="evenodd" clip-rule="evenodd" d="M23.4706 29.0047C31.0755 28.8704 42 31.6421 42 36.0405V42H6V36.0405C6 31.6421 16.2579 29.132 23.4706 29.0047ZM39.9984 36C39.9819 35.7806 39.8227 35.3173 38.9574 34.6539C38.6695 34.4332 38.3327 34.2145 37.9506 34H10V33.98C9.60071 34.2053 9.25327 34.4355 8.96163 34.6678C8.17356 35.2956 8.01567 35.747 8.00117 36H39.9984ZM23.5059 31.0044C26.2546 30.9558 29.4816 31.3134 32.3936 32H15.5427C18.1606 31.3916 21.0221 31.0482 23.5059 31.0044ZM40 38V40H8V38H40Z" fill="black"/>
</svg>

<svg
  xmlns="http://www.w3.org/2000/svg"
  width="24"
  height="24"
  viewBox="0 0 24 24"
  fill="none"
  stroke="currentColor"
  stroke-width="2"
  stroke-linecap="round"
  stroke-linejoin="round"
>
  <path
    fill-rule="evenodd"
    d="M19.301 6.563C18.006 6.8 16.918 7 16 7a1 1 0 0 0-1 1v10a9 9 0 1 0 18 0V8a1 1 0 0 0-1-1c-.823 0-1.838-.186-3.085-.415l-.374-.069C27.171 6.266 25.601 6 24 6c-1.547 0-3.085.267-4.446.516zm.302 1.978c-.872.16-1.763.324-2.603.406v1.505c.692-.069 1.461-.194 2.316-.334l.257-.042c1.362-.221 2.89-.457 4.427-.457 1.59 0 3.151.235 4.522.457l.376.062c.786.128 1.484.242 2.102.309V8.942c-.768-.08-1.594-.233-2.415-.384h-.002l-.401-.074C26.812 8.234 25.402 8 24 8c-1.343 0-2.716.233-4.086.484zM24 25a7 7 0 0 0 7-7v-2.163c-.759-.071-1.578-.205-2.396-.34l-.403-.066C26.831 15.21 25.412 15 24 15c-1.355 0-2.736.209-4.106.431l-.308.05c-.871.143-1.755.288-2.586.36V18a7 7 0 0 0 7 7m4.898-11.481c.786.128 1.484.242 2.102.308v-1.371c-.759-.071-1.578-.205-2.396-.34h-.001l-.402-.065c-1.37-.223-2.789-.432-4.201-.432-1.355 0-2.736.209-4.106.431l-.308.05c-.871.143-1.755.288-2.586.36v1.373c.692-.069 1.461-.194 2.316-.334l.257-.042C20.935 13.236 22.463 13 24 13c1.59 0 3.151.235 4.522.457z"
    clip-rule="evenodd"
  />
  <path
    fill-rule="evenodd"
    d="M23.47 29.005C31.077 28.87 42 31.642 42 36.04V42H6v-5.96c0-4.398 10.258-6.908 17.47-7.035M39.999 36c-.016-.22-.175-.683-1.04-1.346A8.5 8.5 0 0 0 37.95 34H10v-.02q-.6.339-1.038.688c-.788.628-.946 1.079-.96 1.332zm-16.492-4.996c2.749-.048 5.976.31 8.888.996H15.543a39.6 39.6 0 0 1 7.963-.996M40 38v2H8v-2z"
    clip-rule="evenodd"
  />
</svg>
